X:3154
T:Jove Malaj Mome
O:england
M:18/8
L:1/8
Q:250
C:Trad (Bulgarian)
S:lost in the mists of the past...
N:The meter is actually:3+2+2+2+2+3+2+2/8, or you can thunk of it as 7/8
N:+ 11/8 (in one measure)
K:Am
|:"Am"d/2c/2 d2A4 cde2d/2c/2d2cBA2|c/2B/2 c2A4B2"G"G2"Am"A2GABc|cB2A4"G"
B2G2"Am"A2G ABc2|cB2A4"G"B2G2"Am Fine"A3A2z2:|: K:Em |:"Em"A/2G/2A2E4A/2
G/2A BA ~B2A GFED|G/2F/2G2E4"D"F2D2"Em"E2D EFGA|G/2F/2G2E4"D"F2D2"Em"E2D
GFED||G/2F/2G2E4"D"F2D2"Em"E3E2z2:|


